offer/images/number2.svg

<svg height="66" viewBox="0 0 66 66" width="66" xmlns="http://www.w3.org/2000/svg"><g fill="none" fill-rule="evenodd"><g transform="matrix(-1 0 0 1 66 0)"><path d="m65.7661995 33.1263787c0-18.1441865-14.7079505-32.85340076-32.852137-32.85340076-8.0225184 0-15.3727022 2.87637868-21.0774355 7.65349265l-7.700253-2.47070321v11.81261502c-2.59581785 4.7012867-4.07571224 10.1065026-4.07571224 15.8579963 0 18.1441865 14.70921424 32.852137 32.85340074 32.852137 18.1429228 0 32.852137-14.7079505 32.852137-32.852137z" fill="#ffdb2d"/><path d="m65.7649358 33.1263787c0 18.1454502-14.7066868 32.852137-32.8508733 32.852137v-65.70680146c18.1441865 0 32.8508733 14.71047796 32.8508733 32.85466446z" fill="#ffec97"/></g><path d="m19.9501377 46.9635799c0-1.6302848.1213235-3.0874308.3639706-4.3714382.2426471-1.2827436.6584331-2.4530103 1.2486216-3.5120635.5901882-1.0577894 1.3876377-2.0372243 2.3948757-2.9395682 1.0047106-.9010799 2.2710248-1.7869943 3.7976792-2.6539522 1.6302851-.9010799 2.992647-1.6479779 4.0845588-2.2369024 1.0931758-.5901885 1.9601333-1.1108686 2.602137-1.5620404.6420037-.4499081 1.1007584-.8581113 1.3787915-1.2220819.2767693-.3639706.4157857-.788603.4157857-1.2751608 0-.9705882-.3462774-1.7516086-1.0400966-2.3417968-.6938188-.5889248-1.6833636-.884651-2.9661073-.884651-1.457146 0-2.7234605.356388-3.7976794 1.0666363-1.076746.7115117-2.1168426 1.6391314-3.1228169 2.784122l-5.3079044-6.1394759c.5548022-.6243108 1.3017002-1.2309285 2.2381664-1.8211167.936466-.5889248 1.9942554-1.1197152 3.1746324-1.5873161 1.1778489-.468865 2.4707029-.8416822 3.8760338-1.1184516 1.4053308-.2780331 2.8700598-.4170494 4.3967142-.4170494 3.7471277 0 6.6171875.8151423 8.6114432 2.4454274 1.9942553 1.6315485 2.992647 3.8343289 2.992647 6.6083409 0 1.1449907-.1819853 2.1686581-.5459558 3.0710017-.3652347.9023439-.8416822 1.7086397-1.4318707 2.418888-.5901882.7115121-1.2486213 1.3358226-1.9765625 1.8741959-.7292049.5371093-1.4748389 1.0325137-2.2381664 1.4824218-.5206799.3121551-1.1449907.6761257-1.8729319 1.0931755-.7279411.4157857-1.4482994.8416821-2.1598115 1.2751607-.711512.433479-1.3699448.8669579-1.9765625 1.3004365-.6078813.4347427-1.066636.8239893-1.3787914 1.1702667h14.1531481v7.4929917z" fill="#57555c"/><path d="m42.3225896 19.2669625c-1.9822744-1.6289555-4.8332845-2.4434331-8.555541-2.4434331-.257357 0-.5122026.0025254-.7670486.0151531v7.241906c.9503366.0896555 1.7060867.3737758 2.2672496.8536231.689214.5884442 1.0344484 1.3688276 1.0344484 2.3398869 0 .486161-.1380937.9079217-.4142814 1.2728581-.2761877.3624111-.7318974.7728067-1.3708952 1.2223479-.413026.289171-.9164411.6111739-1.5165214.9584319v7.7722636c.0564929-.0416712.1142413-.0833421.1732452-.1262759.6025912-.4343881 1.2566538-.8662505 1.9646986-1.2993759.7042785-.4343881 1.4211111-.8599368 2.1442206-1.2728581.7256202-.4167094 1.3457873-.7816461 1.8617558-1.0922839.758261-.4520665 1.498946-.9432789 2.2220556-1.4837385.7256205-.5366712 1.379683-1.1617356 1.9634432-1.8701416.5875265-.7121944 1.0620674-1.51657 1.4223665-2.4194406.3628104-.9016077.5423321-1.9244402.5423321-3.0672344 0-2.7717496-.989254-4.9727335-2.971528-6.6016886zm-9.3225896 20.2036257v7.4411765h12.9411765v-7.4411765z" fill="#171719" fill-rule="nonzero"/></g></svg>

<?xml version="1.0" encoding="UTF-8"?>
<svg width="66px" height="66px" viewBox="0 0 66 66" version="1.1" xmlns="http://www.w3.org/2000/svg" xmlns:xlink="http://www.w3.org/1999/xlink">
    <!-- Generator: Sketch 52.2 (67145) - http://www.bohemiancoding.com/sketch -->
    <title>Group</title>
    <desc>Created with Sketch.</desc>
    <g id="Page-1" stroke="none" stroke-width="1" fill="none" fill-rule="evenodd">
        <g id="offer" transform="translate(-150.000000, -8338.000000)">
            <g id="Group" transform="translate(150.000000, 8338.000000)">
                <g id="Group-2" transform="translate(33.000000, 33.000000) scale(-1, 1) translate(-33.000000, -33.000000) ">
                    <path d="M65.7661995,33.1263787 C65.7661995,14.9821922 51.058249,0.272977941 32.9140625,0.272977941 C24.8915441,0.272977941 17.5413603,3.14935662 11.836627,7.92647059 L4.136374,5.45576738 L4.136374,17.2683824 C1.54055615,21.9696691 0.0606617647,27.374885 0.0606617647,33.1263787 C0.0606617647,51.2705652 14.769876,65.9785157 32.9140625,65.9785157 C51.0569853,65.9785157 65.7661995,51.2705652 65.7661995,33.1263787 Z" id="Path" fill="#FFDB2D"></path>
                    <path d="M65.7649358,33.1263787 C65.7649358,51.2718289 51.058249,65.9785157 32.9140625,65.9785157 L32.9140625,0.271714235 C51.058249,0.271714235 65.7649358,14.9821922 65.7649358,33.1263787 Z" id="Path" fill="#FFEC97"></path>
                </g>
                <path d="M19.9501377,46.9635799 C19.9501377,45.3332951 20.0714612,43.8761491 20.3141083,42.5921417 C20.5567554,41.3093981 20.9725414,40.1391314 21.5627299,39.0800782 C22.1529181,38.0222888 22.9503676,37.0428539 23.9576056,36.14051 C24.9623162,35.2394301 26.2286304,34.3535157 27.7552848,33.4865578 C29.3855699,32.5854779 30.7479318,31.8385799 31.8398436,31.2496554 C32.9330194,30.6594669 33.7999769,30.1387868 34.4419806,29.687615 C35.0839843,29.2377069 35.542739,28.8295037 35.8207721,28.4655331 C36.0975414,28.1015625 36.2365578,27.6769301 36.2365578,27.1903723 C36.2365578,26.2197841 35.8902804,25.4387637 35.1964612,24.8485755 C34.5026424,24.2596507 33.5130976,23.9639245 32.2303539,23.9639245 C30.7732079,23.9639245 29.5068934,24.3203125 28.4326745,25.0305608 C27.3559285,25.7420725 26.3158319,26.6696922 25.3098576,27.8146828 L20.0019532,21.6752069 C20.5567554,21.0508961 21.3036534,20.4442784 22.2401196,19.8540902 C23.1765856,19.2651654 24.234375,18.734375 25.414752,18.2667741 C26.5926009,17.7979091 27.8854549,17.4250919 29.2907858,17.1483225 C30.6961166,16.8702894 32.1608456,16.7312731 33.6875,16.7312731 C37.4346277,16.7312731 40.3046875,17.5464154 42.2989432,19.1767005 C44.2931985,20.808249 45.2915902,23.0110294 45.2915902,25.7850414 C45.2915902,26.9300321 45.1096049,27.9536995 44.7456344,28.8560431 C44.3803997,29.758387 43.9039522,30.5646828 43.3137637,31.2749311 C42.7235755,31.9864432 42.0651424,32.6107537 41.3372012,33.149127 C40.6079963,33.6862363 39.8623623,34.1816407 39.0990348,34.6315488 C38.5783549,34.9437039 37.9540441,35.3076745 37.2261029,35.7247243 C36.4981618,36.14051 35.7778035,36.5664064 35.0662914,36.999885 C34.3547794,37.433364 33.6963466,37.8668429 33.0897289,38.3003215 C32.4818476,38.7350642 32.0230929,39.1243108 31.7109375,39.4705882 L45.8640856,39.4705882 L45.8640856,46.9635799 L19.9501377,46.9635799 Z" id="Path" fill="#57555C"></path>
                <path d="M42.3225896,19.2669625 C40.3403152,17.638007 37.4893051,16.8235294 33.7670486,16.8235294 C33.5096916,16.8235294 33.254846,16.8260548 33,16.8386825 L33,24.0805885 C33.9503366,24.170244 34.7060867,24.4543643 35.2672496,24.9342116 C35.9564636,25.5226558 36.301698,26.3030392 36.301698,27.2740985 C36.301698,27.7602595 36.1636043,28.1820202 35.8874166,28.5469566 C35.6112289,28.9093677 35.1555192,29.3197633 34.5165214,29.7693045 C34.1034954,30.0584755 33.6000803,30.3804784 33,30.7277364 L33,38.5 C33.0564929,38.4583288 33.1142413,38.4166579 33.1732452,38.3737241 C33.7758364,37.939336 34.429899,37.5074736 35.1379438,37.0743482 C35.8422223,36.6399601 36.5590549,36.2144114 37.2821644,35.8014901 C38.0077846,35.3847807 38.6279517,35.019844 39.1439202,34.7092062 C39.9021812,34.2571397 40.6428662,33.7659273 41.3659758,33.2254677 C42.0915963,32.6887965 42.7456588,32.0637321 43.329419,31.3553261 C43.9169455,30.6431317 44.3914864,29.8387561 44.7517855,28.9358855 C45.1145959,28.0342778 45.2941176,27.0114453 45.2941176,25.8686511 C45.2941176,23.0969015 44.3048636,20.8959176 42.3225896,19.2669625 Z M33,39.4705882 L33,46.9117647 L45.9411765,46.9117647 L45.9411765,39.4705882 L33,39.4705882 Z" id="Shape" fill="#171719" fill-rule="nonzero"></path>
            </g>
        </g>
    </g>
</svg>
